X:1
T:My soul, inspired with sacred love
T:My soul, inspired with sacred love (Stephen Jarvis)
C:Stephen Jarvis
Z:p5, Twelve Psalm Tunes, and
Z:Eight Anthems, in Score,
Z:London: [1821]
%%score [ 1 2 3 4 ]
L:1/8
M:3/4
K:Eb
V:1 treble nm="Soprano" snm="S."
V:2 treble nm="Alto" snm="A."
V:3 treble-8 transpose=-12 nm="Tenor" snm="T."
V:4 bass nm="Bass" snm="B."
V:1
"^Moderato" E2 | (B3 A) G2 | (c2 B2) (eG) | (F3 E) D2 | E4 B2 | (e2 dc) (B=A) | (B/c/d/e/ f2) B2 | %7
w: The|Lord _ a-|bounds _ with _|ten- * der|love, And|un- * * ex- *|am- * * * * pled|
w: My|soul, _ in-|spir’d _ with _|sa- * cred|love, God’s|ho- * * ly _|name _ _ _ _ for|
w: ’Tis|he _ that|all _ thy _|sins _ for-|gives, And|af- * * ter _|sick- * * * * ness|
 (Gc B2) =A2 | B4 B2 | (B3 c) d2 | (e2 G2) c2 | (B3 A) G2 | A4 B2 | (c3 f) (ed) | e4 (E3/2F/4G/4) | %15
w: acts _ _ of|grace; His|wak- * en’d|wrath _ does|slow- * ly|move, His|will- * ing _|mer- cy _ _|
w: e- * * ver|bless; Of|all _ his|fa- * vours|mind- * ful|prove, And|still _ thy _|grate- ful _ _|
w: makes _ _ thee|sound; From|dan- * ger|he _ thy|life _ re-|trieves, By|him _ with _|grace and _ _|
 (A3 G) F2 | E4 |] %17
w: flows _ a-|pace.|
w: thanks _ ex-|press.|
w: mer- * cy|crown’d.|
V:2
 B,2 | E4 E2 | E4 E2 | C2 B,4 | B,4 F2 | G4 F2 | (F2 B2) D2 | (G2 F3) E | D4 F2 | E4 A2 | G4 A2 | %11
w: The|Lord a-|bounds with|ten- der|love, And|un- ex-|am- * pled|acts _ of|grace; His|wak- en’d|wrath does|
w: My|soul, in-|spir’d with|sa- cred|love, God’s|ho- ly|name _ for|e- * ver|bless; Of|all his|fa- vours|
w: ’Tis|he that|all thy|sins for-|gives, And|af- ter|sick- * ness|makes _ thee|sound; From|dan- ger|he thy|
 (G3 F) =E2 | F4 E2 | (E2 A2) A2 | G4 (E>C) | (F3 E) D2 | E4 |] %17
w: slow- * ly|move, His|will- * ing|mer- cy _|flows _ a-|pace.|
w: mind- * ful|prove, And|still _ thy|grate- ful _|thanks _ ex-|press.|
w: life _ re-|trieves, By|him _ with|grace and _|mer- * cy|crown’d.|
V:3
 G2 | B4 B2 | (c>d e2) B2 | (A3 G) F2 | G4 B2 | (c2 fe) (dc) | (B>c d2) (Bd) | (e2 d2) c2 | B4 d2 | %9
w: The|Lord a-|bounds _ _ with|ten- * der|love, And|un- * * ex- *|am- * * pled _|acts _ of|grace; His|
w: My|soul, in-|spir’d _ _ with|sa- * cred|love, God’s|ho- * * ly _|name _ _ for _|e- * ver|bless; Of|
w: ’Tis|he that|all _ _ thy|sins _ for-|gives, And|af- * * ter _|sick- * * ness _|makes _ thee|sound; From|
 e4 B2 | B4 c2 | _d2 c4 | c4 e2 | (c2 A2) f2 | e4 B2 | c2 B4 | [GB]4 |] %17
w: wak- en’d|wrath does|slow- ly|move, His|will- * ing|mer- cy|flows a-|pace.|
w: all his|fa- vours|mind- ful|prove, And|still _ thy|grate- ful|thanks ex-|press.|
w: dan- ger|he thy|life re-|trieves, By|him _ with|grace and|mer- cy|crown’d.|
V:4
 E,2 | (G,3 F,) E,2 | (A,2 G,2) G,2 | (A,2 B,2) B,,2 | E,4 D,2 | C,4 F,2 | D,4 G,2 | E,2 F,4 | %8
w: The|Lord _ a-|bounds _ with|ten- * der|love, And|un- ex-|am- pled|acts of|
w: My|soul, _ in-|spir’d _ with|sa- * cred|love, God’s|ho- ly|name for|e- ver|
w: ’Tis|he _ that|all _ thy|sins _ for-|gives, And|af- ter|sick- ness|makes thee|
 B,,4 (B,A,) | G,4 F,2 | E,4 A,2 | %11
w: grace; His _|wak- en’d|wrath does|
w: bless; Of _|all his|fa- vours|
w: sound; From _|dan- ger|he thy|
"^Original order of staves is Counter - Tenor - Treble - Bass: the counter part is notated in the source in the treble clef,an octave above sounding pitch. The vocal bass part is figured in the original: this figuring has been omitted from thepresent edition to facilitate the underlaying of the text. The first verse only of the text is given in the original:subsequent verses have been added editorially, on the basis of the title 'Psalm 103d. Verses 1/2 3/4 8 & last' in theoriginal. The following notes are printed in the source as small grace notes, and have been editorially written out infull: bar 5, beat 2, tenor F; bar 14, beat 3, treble F and G and counter C." (B,2 C2) C,2 | %12
w: slow- * ly|
w: mind- * ful|
w: life _ re-|
 F,4 G,2 | (A,2 F,2) B,,2 | C,4 G,,2 | A,,2 B,,4 | E,4 |] %17
w: move, His|will- * ing|mer- cy|flows a-|pace.|
w: prove, And|still _ thy|grate- ful|thanks ex-|press.|
w: trieves, By|him _ with|grace and|mer- cy|crown’d.|

